!!!OTL: yyixin canjia xinsijun
!!!ARE: Asia, China,ÿZhejiang Changxing
!! III, 621, 1)
!!!SCT: C1903
!!!YEM: Copyright 1995, estate of Helmut Schaffrath.
**kern
*ICvox
*Ivox
*M2/4
*k[f#]
*G:
{8e
8g
4d
=1
8e
8g
4a
=2
4dd
8ee
8b
=3
2a}
=4
{8a
8b
8dd
8ee
=5
8a
8b
4g
=6
8a
8g
8e
8g
=7
2d}
=8
{4e
8d
8e
=9
8e
8g
4a
=10
4dd
8ee
8b
=11
2a}
=12
{8.g
16a
8b
8dd
=13
8a
8b
8a
8g
=14
8a
8g
8e
8g
=15
2d}
=16
{8a
16b
16a
8a
8g
=17
8e
16e
16g
4d
=18
8a
16a
16b
8a
8g
=19
8e
16e
16g
4d}
=20
{8g
8g
8e
16g
16g
=21
2a}
=22
{8.a
16b
8dd
8ee
=23
8a
8b
8a
8g
=24
8a
16a
16g
8e
8g
=25
8a
16a
16b
8g
8e
=26
2d}
==
!!!AGN: Xiaodiao
!!!AMT: simple duple
!!!AIN: vox
!!!EED: Helmut Schaffrath
!!!EEV: 1.0
*-
